projects/svn/images/icons/search.svg

<svg width="20" height="20" viewBox="0 0 20 20" fill="none" xmlns="http://www.w3.org/2000/svg">
<path d="M12.1948 3.70424C14.6127 6.12216 14.6127 10.0424 12.1948 12.4603L13.2554 13.521C16.2591 10.5173 16.2591 5.64729 13.2554 2.64358L12.1948 3.70424ZM12.1948 12.4603C9.77685 14.8782 5.85662 14.8782 3.4387 12.4603L2.37804 13.521C5.38175 16.5247 10.2517 16.5247 13.2554 13.521L12.1948 12.4603ZM3.4387 12.4603C1.02077 10.0424 1.02077 6.12216 3.4387 3.70424L2.37804 2.64358C-0.625672 5.64729 -0.625672 10.5173 2.37804 13.521L3.4387 12.4603ZM3.4387 3.70424C5.85662 1.28631 9.77685 1.28631 12.1948 3.70424L13.2554 2.64358C10.2517 -0.360132 5.38175 -0.360133 2.37804 2.64358L3.4387 3.70424ZM12.1261 13.1777L18.1672 19.2188L19.2278 18.1582L13.1868 12.1171L12.1261 13.1777Z" fill="black"/>
</svg>

<svg width="20" height="20" fill="none" xmlns="http://www.w3.org/2000/svg"><path d="M12.195 3.704a6.192 6.192 0 010 8.756l1.06 1.061a7.692 7.692 0 000-10.877l-1.06 1.06zm0 8.756a6.192 6.192 0 01-8.756 0l-1.061 1.061a7.691 7.691 0 0010.877 0l-1.06-1.06zm-8.756 0a6.191 6.191 0 010-8.756l-1.061-1.06a7.692 7.692 0 000 10.877l1.06-1.06zm0-8.756a6.191 6.191 0 018.756 0l1.06-1.06a7.691 7.691 0 00-10.877 0l1.06 1.06zm8.687 9.474l6.041 6.04 1.06-1.06-6.04-6.04-1.06 1.06z" fill="#000"/></svg>
